src/icons/schedule.svg

<?xml version="1.0" encoding="utf-8"?>
<!-- Generated by IcoMoon.io -->
<!DOCTYPE svg PUBLIC "-//W3C//DTD SVG 1.1//EN" "http://www.w3.org/Graphics/SVG/1.1/DTD/svg11.dtd">
<svg version="1.1" xmlns="http://www.w3.org/2000/svg" xmlns:xlink="http://www.w3.org/1999/xlink" width="1024" height="1024" viewBox="0 0 1024 1024">
<path class="path1" d="M810.667 128h-42.667v-85.333h-85.333v85.333h-341.333v-85.333h-85.333v85.333h-42.667c-47.147 0-84.907 38.187-84.907 85.333l-0.427 597.333c0 47.147 38.187 85.333 85.333 85.333h597.333c47.147 0 85.333-38.187 85.333-85.333v-597.333c0-47.147-38.187-85.333-85.333-85.333zM810.667 810.667h-597.333v-469.333h597.333v469.333zM298.667 426.667h213.333v213.333h-213.333z"></path>
</svg>

<svg xmlns="http://www.w3.org/2000/svg" viewBox="0 0 1024 1024">
  <path d="M810.67 128H768V42.67h-85.33V128H341.33V42.67H256V128h-42.67c-47.14 0-84.9 38.2-84.9 85.33L128 810.67c0 47.14 38.2 85.33 85.33 85.33h597.34c47.14 0 85.33-38.2 85.33-85.33V213.33c0-47.14-38.2-85.33-85.33-85.33zm0 682.67H213.33V341.33h597.34v469.34zm-512-384H512V640H298.67z"/>
</svg>
